X:16
T:Little Cuz
C:Terence "Cuz" Teahan
B:Terry "Cuz" Teahan "Sliabh Luachra on Parade" 1980
Z:Patrick Cavanagh
M:6/8
L:1/8
R:Jig
K:G
N:for Thomas F. McQuinn
| AGE EGB | BeB dBA | GEE dEE | gfe dBA | 
Bef gdB | edB ABd | ege dBd | eAA A3 :| 
| gab g2e | age dBd | gab g2e | age a3 | 
bgg age | ege dBd | GAB d2e | dBG A3 :|| 

